!!!COM: John Williams
!!!OTL: Throne Room Theme
!!!GAW: Star Wars: Episode IV: A New Hope
!!!ODT: 1977
!!!OCL: Frank Lehman
!!!ENC: Claire Arthur
!!!ENC2: John McNamara
**kern	**harte	**harm	**altharm	**pedal	**cadence	**text
*clefG2	*	*	*	*	*	*
*k[b-e-a-d-g-]	*k[b-e-a-d-g-]	*k[b-e-a-d-g-]	*	*	*	*
*D-:	*D-:	*D-:	*	*	*	*
*M4/4	*M4/4	*M4/4	*	*	*	*
=1	=1	=1	=1	=1	=1	=1
*MM120	*MM120	*MM120	*	*	*	*
4.d-	Db	I	.	.	.	Walking bassline throughout only partially captured through chord symbols
.	Db/7	.	.	.	.	.
8d-	.	I7d	.	.	.	.
8d-L	Gb/3	IVb	.	.	.	.
8e-J	.	.	.	.	.	.
8.cL	Ab:7	V7	.	.	.	.
16A-Jk	.	.	.	.	.	.
=2	=2	=2	=2	=2	=2	=2
8d-L	Gb	IV	.	.	.	.
8e-J	.	.	.	.	.	.
2g-	Gb/7	IV7d	.	.	.	.
.	Eb:min7	.	.	.	.	.
8fL	Ab:7	V7	.	.	.	.
8e-J	.	.	.	.	.	.
=3	=3	=3	=3	=3	=3	=3
4.a-	F:min7	iii7	.	.	.	.
8cc	.	.	.	.	.	.
8fL	Bb:min7	vi7	.	.	.	.
8d-J	.	.	.	.	.	.
8.b-L	Gb	IV	.	.	.	.
16a-Jk	.	.	.	.	.	.
=4	=4	=4	=4	=4	=4	=4
[2dd-	Eb:min7/m3	iic	.	.	.	.
4dd-]	Ab:7	V7	.	.	.	.
8ccL	Ab:7/m7	V7d	.	.	EC	.
8b-J	.	.	.	.	.	.
=5	=5	=5	=5	=5	=5	=5
4.a-	F:min7	iii7	.	.	.	.
8f	.	.	.	.	.	.
8ee-L	Bb:min7	vi7	.	.	.	.
8dd-	.	.	.	.	.	.
8a-	.	.	.	.	.	.
8fJ	.	.	.	.	.	.
=6	=6	=6	=6	=6	=6	=6
4.a-	Bb:min7	vi7	var1 ii7/V	.	.	.
16b-LL	.	.	.	.	.	.
16a-JJ	.	.	.	.	.	.
4gn	Eb:7	V7/V	.	.	.	.
8.b-L	Eb:7/m7	V7d/V	.	.	.	.
16a-Jk	.	.	.	.	.	.
=7	=7	=7	=7	=7	=7	=7
4a-	Ab/3	Vb	.	.	.	.
8.ccL	Ab	V	.	.	.	.
16b-Jk	.	.	.	.	.	.
8b-L	Bb:min/m3	ii7b/V	.	.	.	.
8fJ	.	.	.	.	.	.
12ee-L	Bb:min	ii/V	.	.	.	.
12dd-	.	.	.	.	.	.
12ccJ	.	.	.	.	.	.
=8	=8	=8	=8	=8	=8	=8
4.dd-	Eb:7/3	V7b/V	.	.	.	.
16ee-LL	Eb:7	V7/V	.	.	.	.
16dd-JJ	.	.	.	.	.	.
8cc	Ab	V	.	.	IAC	Segues into Bsection based on Main Theme B, followed by tonally conclusive return to Throne Room theme-
8r	.	.	.	.	.	.
4r	.	.	.	.	||	.
=	=	=	=	=	=	=
*-	*-	*-	*-	*-	*-	*-
